X:5665
T:Gan ainm
R:Reel
S:
H:
N:
D:
Z:Adrian Scahill
M:4/4
L:1/8
K:G
G2BG cGBG|ADDE FGAF|G2BG cGBG|Addc AGGF:||\
g2dg egde|g2bg agef|g2dg egdB|cBAc BGG2:||
